src/icons/log-explorer.svg

<svg width="65" height="65" viewBox="0 0 65 65" fill="none" xmlns="http://www.w3.org/2000/svg">
<path d="M31.748 52.2402C27.1461 52.2419 22.7002 50.5729 19.2363 47.5433C15.7724 44.5137 13.5262 40.3295 12.9151 35.7684C12.3041 31.2074 13.3697 26.5795 15.9139 22.745C18.4581 18.9104 22.308 16.1299 26.748 14.9202V10.7902C22.726 11.686 19.0185 13.6458 16.0131 16.4648C13.0077 19.2838 10.8149 22.8584 9.66376 26.8149C8.51264 30.7714 8.44557 34.9645 9.46954 38.9558C10.4935 42.947 12.5709 46.59 15.4846 49.5036C18.3983 52.4173 22.0412 54.4947 26.0325 55.5187C30.0237 56.5426 34.2168 56.4756 38.1733 55.3245C42.1298 54.1733 45.7044 51.9805 48.5234 48.9751C51.3424 45.9697 53.3022 42.2622 54.198 38.2402H50.068C48.961 42.2536 46.5712 45.7944 43.2633 48.3223C39.9554 50.8502 35.9112 52.2262 31.748 52.2402Z" fill="#FF6633"/>
<path d="M32.748 6.24023L30.748 8.24023V32.2402L32.748 34.2402H56.748L58.748 32.2402C58.7403 25.347 55.9986 18.7382 51.1243 13.8639C46.25 8.98965 39.6412 6.24791 32.748 6.24023ZM34.748 30.2402V10.3302C39.8682 10.8048 44.6612 13.0549 48.2973 16.691C51.9333 20.327 54.1834 25.12 54.658 30.2402H34.748Z" fill="#FF6633"/>
</svg>

<svg xmlns="http://www.w3.org/2000/svg" width="65" height="65" fill="none" viewBox="0 0 65 65"><path fill="#f63" d="M31.748 52.24a18.994 18.994 0 0 1-5-37.32v-4.13a23 23 0 1 0 27.45 27.45h-4.13a19.07 19.07 0 0 1-18.32 14"/><path fill="#f63" d="m32.748 6.24-2 2v24l2 2h24l2-2a26.03 26.03 0 0 0-26-26m2 24V10.33a22.04 22.04 0 0 1 19.91 19.91z"/></svg>
